T: Young Collins
M: 4/4
L: 1/8
K: Gmaj
|: GABc d2 cB |  c2 e2 A2 Bc | d2 d2 e2 dc | B2 A2 G4:|
E2 D2 EF G2 | A2 A2 G3 A | B2 A2 Bc d2 | e2 e2 dcBA|
GABc d2 d2 | c2 e2 A2 Bc | d2 d2 e2 dc | B2 A2 G4 |]
